sddm/Sweet-HTB/assets/suspend.svg

<?xml version="1.0" encoding="UTF-8" standalone="no"?>
<svg
   style="isolation:isolate"
   viewBox="0 0 33.999999 33.999999"
   width="45.333332"
   height="45.333332"
   version="1.1"
   id="svg9"
   sodipodi:docname="suspend.svg"
   inkscape:version="1.2.2 (b0a8486541, 2022-12-01)"
   inkscape:export-filename="suspend.png"
   inkscape:export-xdpi="96"
   inkscape:export-ydpi="96"
   xmlns:inkscape="http://www.inkscape.org/namespaces/inkscape"
   xmlns:sodipodi="http://sodipodi.sourceforge.net/DTD/sodipodi-0.dtd"
   xmlns="http://www.w3.org/2000/svg"
   xmlns:svg="http://www.w3.org/2000/svg"
   xmlns:rdf="http://www.w3.org/1999/02/22-rdf-syntax-ns#"
   xmlns:cc="http://creativecommons.org/ns#"
   xmlns:dc="http://purl.org/dc/elements/1.1/">
  <metadata
     id="metadata15">
    <rdf:RDF>
      <cc:Work
         rdf:about="">
        <dc:format>image/svg+xml</dc:format>
        <dc:type
           rdf:resource="http://purl.org/dc/dcmitype/StillImage" />
      </cc:Work>
    </rdf:RDF>
  </metadata>
  <defs
     id="defs13" />
  <sodipodi:namedview
     pagecolor="#ffffff"
     bordercolor="#666666"
     borderopacity="1"
     objecttolerance="10"
     gridtolerance="10"
     guidetolerance="10"
     inkscape:pageopacity="0"
     inkscape:pageshadow="2"
     inkscape:window-width="1920"
     inkscape:window-height="1056"
     id="namedview11"
     showgrid="false"
     inkscape:zoom="6.5904392"
     inkscape:cx="11.683592"
     inkscape:cy="13.959616"
     inkscape:window-x="0"
     inkscape:window-y="24"
     inkscape:window-maximized="1"
     inkscape:current-layer="svg9"
     inkscape:document-rotation="0"
     inkscape:pagecheckerboard="0"
     inkscape:document-units="px"
     inkscape:showpageshadow="2"
     inkscape:deskcolor="#d1d1d1" />
  <linearGradient
     id="_lgradient_0"
     x1="0"
     y1="0.5"
     x2="1"
     y2="0.5"
     gradientTransform="matrix(33,0,0,33,0.5,0.5)"
     gradientUnits="userSpaceOnUse">
    <stop
       offset="0%"
       stop-opacity="1"
       style="stop-color:#00b6b0"
       id="stop2" />
    <stop
       offset="97.82608695652173%"
       stop-opacity="1"
       style="stop-color:#00b6b0"
       id="stop4" />
  </linearGradient>
  <g
     id="system-log-out"
     class="ColorScheme-Text"
     style="color:#333333;fill:#dfdfdf;fill-opacity:1"
     transform="matrix(0.75000003,0,0,0.75000003,-126.28606,34.255738)">
    <g
       id="g989-9"
       style="isolation:isolate"
       transform="matrix(1.4482839,0,0,1.4482839,225.33911,-46.231661)">
      <path
         d="M -23.669601,0.72433968 A 15.382877,15.382877 0 0 0 -38.936307,16.107217 15.382877,15.382877 0 0 0 -23.55343,31.490096 15.382877,15.382877 0 0 0 -8.170551,16.107217 15.382877,15.382877 0 0 0 -23.55343,0.72433968 a 15.382877,15.382877 0 0 0 -0.116171,0 z m 0.006,2.05105032 a 13.331921,13.331921 0 0 1 0.110114,0 13.331921,13.331921 0 0 1 13.331829,13.331827 A 13.331921,13.331921 0 0 1 -23.553487,29.439046 13.331921,13.331921 0 0 1 -36.885314,16.107217 13.331921,13.331921 0 0 1 -23.66365,2.77539 Z"
         style="display:none;isolation:isolate;fill:#00b6b0;fill-opacity:1;stroke-width:2.05105;stroke-linecap:round;stroke-linejoin:round;paint-order:stroke fill markers"
         id="path842-5-2-6"
         inkscape:label="path842"
         class="UnoptimicedTransforms" />
      <path
         id="path7738"
         style="color:#a1adc8;isolation:isolate;fill:#00b6b0;fill-opacity:1;stroke-width:0.68508"
         class="ColorScheme-Text"
         d="m -23.51887,10.010568 a 0.62577835,0.75 0 0 0 -0.625779,0.75 0.62577835,0.75 0 0 0 0.625779,0.75 h 4.747115 l -5.18956,6.219727 a 0.62584093,0.750075 0 0 0 0.442445,1.280273 h 6.257783 a 0.62577835,0.75 0 0 0 0.625779,-0.75 0.62577835,0.75 0 0 0 -0.625779,-0.75 h -4.747115 l 5.18956,-6.219726 a 0.62584093,0.750075 0 0 0 -0.442445,-1.280274 z m -6.257783,6 a 0.62577835,0.75 0 0 0 -0.625779,0.75 0.62577835,0.75 0 0 0 0.625779,0.75 h 2.244002 l -2.686448,3.219727 a 0.62584093,0.750075 0 0 0 0.442446,1.280273 h 3.75467 a 0.62577835,0.75 0 0 0 0.625778,-0.75 0.62577835,0.75 0 0 0 -0.625778,-0.75 h -2.244002 l 2.686446,-3.219726 a 0.62584093,0.750075 0 0 0 -0.442444,-1.280274 z" />
      <path
         d="m -23.806647,10.931479 v 0 c 0.704213,0 1.27575,0.571535 1.27575,1.275749 v 10.205988 c 0,0.704214 -0.571537,1.275749 -1.27575,1.275749 v 0 c -0.704213,0 -1.275748,-0.571535 -1.275748,-1.275749 V 12.207228 c 0,-0.704214 0.571535,-1.275749 1.275748,-1.275749 z m 5.509534,0 v 0 c 0.704213,0 1.275748,0.571535 1.275748,1.275749 v 10.205988 c 0,0.704214 -0.571535,1.275749 -1.275748,1.275749 v 0 c -0.704213,0 -1.27575,-0.571535 -1.27575,-1.275749 V 12.207228 c 0,-0.704214 0.571537,-1.275749 1.27575,-1.275749 z"
         fill-rule="evenodd"
         fill="url(#_lgradient_0)"
         id="path7-3"
         style="display:none;isolation:isolate;fill:#00b6b0;fill-opacity:1;stroke-width:1.70099"
         sodipodi:nodetypes="scssssssssssssssss"
         transform="translate(-2.4669899,-1.2996542)" />
      <path
         id="path7128"
         style="display:inline;isolation:isolate;fill:#00b6b0;fill-opacity:1;stroke-width:2.05105;stroke-linecap:round;stroke-linejoin:round;paint-order:stroke fill markers"
         class="UnoptimicedTransforms"
         inkscape:label="path842"
         d="M -23.669373,0.72467331 A 15.382877,15.382877 0 0 0 -38.936632,16.106562 15.382877,15.382877 0 0 0 -23.553395,31.4898 15.382877,15.382877 0 0 0 -8.1701572,16.106562 15.382877,15.382877 0 0 0 -10.948229,7.2895546 c -0.351397,-0.2828834 -0.856475,-0.3142319 -1.235299,-0.036412 -0.458347,0.3371506 -0.567359,1.0219543 -0.238698,1.4955738 0.107847,0.1680881 0.177835,0.2908035 0.226561,0.3802992 a 13.331921,13.331921 0 0 1 1.97432,6.9775464 13.331921,13.331921 0 0 1 -13.33205,13.33205 13.331921,13.331921 0 0 1 -13.332049,-13.33205 13.331921,13.331921 0 0 1 13.221466,-13.3307008 13.331921,13.331921 0 0 1 0.110583,0 13.331921,13.331921 0 0 1 5.780009,1.3256529 c 0.461047,0.096067 0.946672,-0.1452658 1.144943,-0.6014662 0.208252,-0.4780367 0.03074,-1.0379362 -0.385694,-1.3162128 a 15.382877,15.382877 0 0 0 -6.539258,-1.45916219 15.382877,15.382877 0 0 0 -0.115978,4e-7 z" />
    </g>
  </g>
</svg>

<?xml version="1.0" encoding="UTF-8" standalone="no"?>
<svg
   style="isolation:isolate"
   viewBox="0 0 34 34"
   width="34pt"
   height="34pt"
   version="1.1"
   id="svg9"
   sodipodi:docname="suspend.svg"
   inkscape:version="1.2.2 (b0a8486541, 2022-12-01)"
   xmlns:inkscape="http://www.inkscape.org/namespaces/inkscape"
   xmlns:sodipodi="http://sodipodi.sourceforge.net/DTD/sodipodi-0.dtd"
   xmlns="http://www.w3.org/2000/svg"
   xmlns:svg="http://www.w3.org/2000/svg"
   xmlns:rdf="http://www.w3.org/1999/02/22-rdf-syntax-ns#"
   xmlns:cc="http://creativecommons.org/ns#"
   xmlns:dc="http://purl.org/dc/elements/1.1/">
  <metadata
     id="metadata15">
    <rdf:RDF>
      <cc:Work
         rdf:about="">
        <dc:format>image/svg+xml</dc:format>
        <dc:type
           rdf:resource="http://purl.org/dc/dcmitype/StillImage" />
        <dc:title />
      </cc:Work>
    </rdf:RDF>
  </metadata>
  <defs
     id="defs13" />
  <sodipodi:namedview
     pagecolor="#ffffff"
     bordercolor="#666666"
     borderopacity="1"
     objecttolerance="10"
     gridtolerance="10"
     guidetolerance="10"
     inkscape:pageopacity="0"
     inkscape:pageshadow="2"
     inkscape:window-width="1920"
     inkscape:window-height="1032"
     id="namedview11"
     showgrid="false"
     inkscape:zoom="6.5904392"
     inkscape:cx="-14.794158"
     inkscape:cy="14.566556"
     inkscape:window-x="0"
     inkscape:window-y="24"
     inkscape:window-maximized="1"
     inkscape:current-layer="g989-9"
     inkscape:document-rotation="0"
     inkscape:pagecheckerboard="0"
     inkscape:document-units="pt"
     inkscape:showpageshadow="2"
     inkscape:deskcolor="#d1d1d1" />
  <linearGradient
     id="_lgradient_0"
     x1="0"
     y1="0.5"
     x2="1"
     y2="0.5"
     gradientTransform="matrix(33,0,0,33,0.5,0.5)"
     gradientUnits="userSpaceOnUse">
    <stop
       offset="0%"
       stop-opacity="1"
       style="stop-color:#00b6b0"
       id="stop2" />
    <stop
       offset="97.82608695652173%"
       stop-opacity="1"
       style="stop-color:#00b6b0"
       id="stop4" />
  </linearGradient>
  <g
     id="system-log-out"
     class="ColorScheme-Text"
     style="color:#333333;fill:#dfdfdf;fill-opacity:1"
     transform="matrix(0.75000003,0,0,0.75000003,-126.28606,34.255738)">
    <g
       id="g989-9"
       style="isolation:isolate"
       transform="matrix(1.4482839,0,0,1.4482839,225.33911,-46.231661)">
      <path
         d="M -23.669601,0.72433968 A 15.382877,15.382877 0 0 0 -38.936307,16.107217 15.382877,15.382877 0 0 0 -23.55343,31.490096 15.382877,15.382877 0 0 0 -8.170551,16.107217 15.382877,15.382877 0 0 0 -23.55343,0.72433968 a 15.382877,15.382877 0 0 0 -0.116171,0 z m 0.006,2.05105032 a 13.331921,13.331921 0 0 1 0.110114,0 13.331921,13.331921 0 0 1 13.331829,13.331827 A 13.331921,13.331921 0 0 1 -23.553487,29.439046 13.331921,13.331921 0 0 1 -36.885314,16.107217 13.331921,13.331921 0 0 1 -23.66365,2.77539 Z"
         style="display:none;isolation:isolate;fill:#00b6b0;fill-opacity:1;stroke-width:2.05105;stroke-linecap:round;stroke-linejoin:round;paint-order:stroke fill markers"
         id="path842-5-2-6"
         inkscape:label="path842"
         class="UnoptimicedTransforms" />
      <path
         id="path7738"
         style="isolation:isolate;color:#a1adc8;fill:#00b6b0;fill-opacity:1;stroke-width:0.68508"
         class="ColorScheme-Text"
         d="m -23.51887,10.010568 a 0.62577835,0.75 0 0 0 -0.625779,0.75 0.62577835,0.75 0 0 0 0.625779,0.75 h 4.747115 l -5.18956,6.219727 a 0.62584093,0.750075 0 0 0 0.442445,1.280273 h 6.257783 a 0.62577835,0.75 0 0 0 0.625779,-0.75 0.62577835,0.75 0 0 0 -0.625779,-0.75 h -4.747115 l 5.18956,-6.219726 a 0.62584093,0.750075 0 0 0 -0.442445,-1.280274 z m -6.257783,6 a 0.62577835,0.75 0 0 0 -0.625779,0.75 0.62577835,0.75 0 0 0 0.625779,0.75 h 2.244002 l -2.686448,3.219727 a 0.62584093,0.750075 0 0 0 0.442446,1.280273 h 3.75467 a 0.62577835,0.75 0 0 0 0.625778,-0.75 0.62577835,0.75 0 0 0 -0.625778,-0.75 h -2.244002 l 2.686446,-3.219726 a 0.62584093,0.750075 0 0 0 -0.442444,-1.280274 z" />
      <path
         d="m -23.806647,10.931479 v 0 c 0.704213,0 1.27575,0.571535 1.27575,1.275749 v 10.205988 c 0,0.704214 -0.571537,1.275749 -1.27575,1.275749 v 0 c -0.704213,0 -1.275748,-0.571535 -1.275748,-1.275749 V 12.207228 c 0,-0.704214 0.571535,-1.275749 1.275748,-1.275749 z m 5.509534,0 v 0 c 0.704213,0 1.275748,0.571535 1.275748,1.275749 v 10.205988 c 0,0.704214 -0.571535,1.275749 -1.275748,1.275749 v 0 c -0.704213,0 -1.27575,-0.571535 -1.27575,-1.275749 V 12.207228 c 0,-0.704214 0.571537,-1.275749 1.27575,-1.275749 z"
         fill-rule="evenodd"
         fill="url(#_lgradient_0)"
         id="path7-3"
         style="display:none;isolation:isolate;fill:#00b6b0;fill-opacity:1;stroke-width:1.70099"
         sodipodi:nodetypes="scssssssssssssssss"
         transform="translate(-2.4669899,-1.2996542)" />
      <path
         id="path7128"
         style="isolation:isolate;display:inline;fill:#00b6b0;fill-opacity:1;stroke-width:2.05105;stroke-linecap:round;stroke-linejoin:round;paint-order:stroke fill markers"
         class="UnoptimicedTransforms"
         inkscape:label="path842"
         d="M -23.669373 0.72467331 A 15.382877 15.382877 0 0 0 -38.936632 16.106562 A 15.382877 15.382877 0 0 0 -23.553395 31.4898 A 15.382877 15.382877 0 0 0 -8.1701572 16.106562 A 15.382877 15.382877 0 0 0 -10.948229 7.2895546 C -11.299626 7.0066712 -11.804704 6.9753227 -12.183528 7.253143 C -12.641875 7.5902936 -12.750887 8.2750973 -12.422226 8.7487168 C -12.314379 8.9168049 -12.244391 9.0395203 -12.195665 9.129016 A 13.331921 13.331921 0 0 1 -10.221345 16.106562 A 13.331921 13.331921 0 0 1 -23.553395 29.438612 A 13.331921 13.331921 0 0 1 -36.885444 16.106562 A 13.331921 13.331921 0 0 1 -23.663978 2.7758616 A 13.331921 13.331921 0 0 1 -23.553395 2.7758616 A 13.331921 13.331921 0 0 1 -17.773386 4.1015145 C -17.312339 4.1975813 -16.826714 3.9562487 -16.628443 3.5000483 C -16.420191 3.0220116 -16.597705 2.4621121 -17.014137 2.1838355 A 15.382877 15.382877 0 0 0 -23.553395 0.72467331 A 15.382877 15.382877 0 0 0 -23.669373 0.72467331 z " />
    </g>
  </g>
  <path
     d="m 72.997948,8.1070527 v 0 c -0.222,-0.329 -0.135,-0.774999 0.193,-0.997 v 0 c 0.329,-0.221999 0.776,-0.134999 0.998,0.194001 v 0 c 1.815,2.7179993 2.783,5.9109993 2.783,9.1749993 0,4.376 -1.736,8.573 -4.835,11.665 -3.092,3.099 -7.289,4.835001 -11.665,4.835001 -4.376,0 -8.573,-1.736001 -11.665,-4.835001 -3.099,-3.092 -4.835,-7.289 -4.835,-11.665 v 0 c 0,-4.375999 1.736,-8.5730003 4.835,-11.6649998 3.092,-3.0919999 7.289,-4.83499985 11.665,-4.83499985 2.453,0 4.885,0.54499997 7.102,1.60699995 v 0 c 0.357,0.17 0.508,0.598 0.337,0.9539999 v 0 c -0.17,0.356 -0.597,0.508 -0.954,0.337 v 0 c -2.023,-0.9609999 -4.24,-1.4629999 -6.485,-1.4629999 -3.996,0 -7.827,1.5849999 -10.653,4.4119999 -2.827,2.8260005 -4.412,6.6569998 -4.412,10.6529998 v 0 c 0,3.996 1.585,7.827 4.412,10.653 2.826,2.827 6.657,4.412 10.653,4.412 3.996,0 7.827,-1.585 10.653,-4.412 2.827,-2.826 4.412,-6.657 4.412,-10.653 0,-2.984 -0.882,-5.896999 -2.539,-8.3720003 z m -10.314,16.3220003 v 0 c 0.398,-0.112 0.81,0.122 0.919,0.521 v 0 c 0.11,0.4 -0.124,0.815 -0.521,0.926 v 0 c -0.847,0.233 -1.725,0.353 -2.61,0.353 -2.587,0 -5.07,-1.027 -6.893,-2.858 -1.829,-1.822 -2.857,-4.304 -2.857,-6.892 0,-1.935 0.577,-3.833 1.657,-5.445 v 0 c 0.232,-0.343999 0.699,-0.433999 1.043,-0.201999 v 0 c 0.344,0.230999 0.434,0.698 0.203,1.041999 v 0 c -0.915,1.365 -1.403,2.962 -1.403,4.605 0,2.19 0.87,4.29 2.415,5.835 1.545,1.545001 3.645,2.415 5.835,2.415 0.75,0 1.493,-0.098 2.212,-0.3 z m -3.659,-16.0720003 v 0 c -0.41,0.07 -0.8,-0.204 -0.871,-0.611999 v 0 c -0.07,-0.407 0.202,-0.796 0.608,-0.866 v 0 c 0.563,-0.098 1.14,-0.150001 1.71,-0.150001 2.587,0 5.07,1.028001 6.893,2.8570002 1.83,1.8230001 2.857,4.3050001 2.857,6.8930001 0,1.965 -0.592,3.885 -1.71,5.512 v 0 c -0.232,0.34 -0.697,0.426 -1.039,0.192 v 0 c -0.341,-0.234 -0.427,-0.703 -0.191,-1.047 v 0 c 0.938,-1.365 1.44,-2.992 1.44,-4.657 0,-2.19 -0.87,-4.29 -2.415,-5.835 -1.545,-1.5449991 -3.645,-2.4150003 -5.835,-2.4150003 -0.487,0 -0.967,0.045 -1.447,0.128 z m -0.132,4.3720003 v 0 c 0.414,0 0.75,0.336 0.75,0.75 v 6 c 0,0.414 -0.336,0.75 -0.75,0.75 v 0 c -0.414,0 -0.75,-0.336 -0.75,-0.75 v -6 c 0,-0.414 0.336,-0.75 0.75,-0.75 z m 3.239,0 v 0 c 0.414,0 0.75,0.336 0.75,0.75 v 6 c 0,0.414 -0.336,0.75 -0.75,0.75 v 0 c -0.414,0 -0.75,-0.336 -0.75,-0.75 v -6 c 0,-0.414 0.336,-0.75 0.75,-0.75 z"
     fill-rule="evenodd"
     fill="url(#_lgradient_0)"
     id="path7-2"
     style="isolation:isolate;fill:#00b6b0;fill-opacity:1" />
</svg>
